X: 5
T: Brudpolska efter Erik Ljung
R: Polska
Q: 105
S: efter Erik Ljung
S: efter Britt-Marie Swing
O: Delsbo, Hälsingland
N: Gammalpolska Delsbo. Sista tre takterna användes för att tacka för dansen.
Z: LP
M: 3/4
L: 1/8
K: Am
E2 A>B (3cAc| (3BGB {Bc}BA A>B|{cBc}d2 e>^f g^f/e/|(3d^f-f e4 :|
|:(B>c c)>e e>c|B>B-B>d (B2|B>c c)>e e>c|B>B-B>d d>c|
{Bc}B>A ^G>A (3BA^G|(3A2E2C2 A,2:|
e^f/^g/ a2 e>c|{Bc}B>A ^G>A (3BA^G|A/B/^c A4|

